dist/svgs/carbon-icons/svg/checkmark-glyph.svg

<svg xmlns="http://www.w3.org/2000/svg" fill-rule="evenodd" viewBox="0 0 16 16"><path d="M8 0C3.6 0 0 3.6 0 8s3.6 8 8 8 8-3.6 8-8-3.6-8-8-8zM6.7 11.5L3.4 8.1l1.4-1.4 1.9 1.9 4.1-4.1 1.4 1.4-5.5 5.6z"/></svg>

<svg width="16px" height="16px" viewBox="0 0 16 16" version="1.1" xmlns="http://www.w3.org/2000/svg" xmlns:xlink="http://www.w3.org/1999/xlink" fill-rule="evenodd">
	<path d="M8,0 C3.6,0 0,3.6 0,8 C0,12.4 3.6,16 8,16 C12.4,16 16,12.4 16,8 C16,3.6 12.4,0 8,0 L8,0 Z M6.7,11.5 L3.4,8.1 L4.8,6.7 L6.7,8.6 L10.8,4.5 L12.2,5.9 L6.7,11.5 L6.7,11.5 Z" id="Shape" fill="#000000"></path>
</svg>
